public/logos/18_eu/10.svg

<svg xmlns="http://www.w3.org/2000/svg" viewBox="0 0 38 38"  fill-rule="nonzero" stroke-linejoin="round" stroke-miterlimit="2" xmlns:v="https://vecta.io/nano"><path d="M36.72 18.72c0-9.875-8.125-18-18-18s-18 8.125-18 18 8.125 18 18 18 18-8.125 18-18" fill="#202020"/><path d="M23.33 17.18c-.05 2.194.084 4.388.4 6.56a5.9 5.9 0 0 0 1.17 2.9 2 2 0 0 0 1.45.6c.852.043 1.648-.443 2-1.22.57-1 .83-3 .83-5.87.095-2.666-.164-5.332-.77-7.93-.4-1.37-1.14-2-2.25-2-.883-.006-1.691.508-2.06 1.31-.51.86-.77 2.77-.77 5.65zM19.88 19c-.091-2.074.179-4.149.8-6.13A6.63 6.63 0 0 1 23 9.71c1.066-.692 2.319-1.041 3.59-1a5.7 5.7 0 0 1 3.34.88c.947.693 1.648 1.671 2 2.79a18.5 18.5 0 0 1 .69 5.85c.095 2.113-.186 4.226-.83 6.24a6.6 6.6 0 0 1-2.25 3.25c-1.034.723-2.279 1.085-3.54 1.03-1.207.03-2.393-.32-3.39-1a5.46 5.46 0 0 1-2.08-2.85 18.36 18.36 0 0 1-.65-5.9zM6.57 28.47l-.14-.17v-.83l.14-.17a20.17 20.17 0 0 0 3-.37.66.66 0 0 0 .37-.34c.202-.899.286-1.82.25-2.74l.12-7.12-.09-4.54c-.09-.29-.11-.25-.25-.25-.14.008-.276.046-.4.11l-3.82 1.74-.2-.12A10.61 10.61 0 0 0 5.26 12l.12-.23c2.947-.808 5.848-1.777 8.69-2.9l.37.23c-.14 1.28-.23 3.05-.28 5.27l-.09 8.07c-.039 1.336.018 2.672.17 4a.81.81 0 0 0 .31.49c.935.235 1.896.35 2.86.34l.14.17v.83l-.14.17h-1.74c-1.74 0-2.94-.06-3.54-.06l-5.56.09z" fill="#fff"/></svg>

<?xml version="1.0" encoding="UTF-8" standalone="no"?>
<!DOCTYPE svg PUBLIC "-//W3C//DTD SVG 1.1//EN" "http://www.w3.org/Graphics/SVG/1.1/DTD/svg11.dtd">
<svg width="100%" height="100%" viewBox="0 0 38 38" version="1.1" xmlns="http://www.w3.org/2000/svg" xmlns:xlink="http://www.w3.org/1999/xlink" xml:space="preserve" xmlns:serif="http://www.serif.com/" style="fill-rule:evenodd;clip-rule:evenodd;stroke-linejoin:round;stroke-miterlimit:2;">
    <path d="M36.72,18.72C36.72,8.845 28.595,0.72 18.72,0.72C8.845,0.72 0.72,8.845 0.72,18.72C0.72,28.595 8.845,36.72 18.72,36.72C28.595,36.72 36.72,28.595 36.72,18.72" style="fill:rgb(32,32,32);fill-rule:nonzero;"/>
    <path d="M23.33,17.18C23.28,19.374 23.414,21.568 23.73,23.74C23.852,24.794 24.256,25.796 24.9,26.64C25.281,27.029 25.805,27.246 26.35,27.24C27.202,27.283 27.998,26.797 28.35,26.02C28.92,25.02 29.18,23.02 29.18,20.15C29.275,17.484 29.016,14.818 28.41,12.22C28.01,10.85 27.27,10.22 26.16,10.22C25.277,10.214 24.469,10.728 24.1,11.53C23.59,12.39 23.33,14.3 23.33,17.18ZM19.88,19C19.789,16.926 20.059,14.851 20.68,12.87C21.117,11.607 21.926,10.505 23,9.71C24.066,9.018 25.319,8.669 26.59,8.71C27.767,8.651 28.935,8.958 29.93,9.59C30.877,10.283 31.578,11.261 31.93,12.38C32.471,14.281 32.704,16.256 32.62,18.23C32.715,20.343 32.434,22.456 31.79,24.47C31.39,25.758 30.604,26.892 29.54,27.72C28.506,28.443 27.261,28.805 26,28.75C24.793,28.78 23.607,28.43 22.61,27.75C21.621,27.057 20.889,26.054 20.53,24.9C19.995,22.982 19.775,20.989 19.88,19ZM6.57,28.47L6.43,28.3L6.43,27.47L6.57,27.3C7.578,27.252 8.581,27.128 9.57,26.93C9.733,26.87 9.866,26.748 9.94,26.59C10.142,25.691 10.226,24.77 10.19,23.85C10.28,21.17 10.31,18.78 10.31,16.73C10.31,13.99 10.31,12.48 10.22,12.19C10.13,11.9 10.11,11.94 9.97,11.94C9.83,11.948 9.694,11.986 9.57,12.05L5.75,13.79L5.55,13.67C5.498,13.106 5.401,12.548 5.26,12L5.38,11.77C8.327,10.962 11.228,9.993 14.07,8.87L14.44,9.1C14.3,10.38 14.21,12.15 14.16,14.37C14.11,16.59 14.07,19.27 14.07,22.44C14.031,23.776 14.088,25.112 14.24,26.44C14.279,26.636 14.39,26.811 14.55,26.93C15.485,27.165 16.446,27.28 17.41,27.27L17.55,27.44L17.55,28.27L17.41,28.44L15.67,28.44C13.93,28.44 12.73,28.38 12.13,28.38C10.42,28.38 8.57,28.41 6.57,28.47Z" style="fill:white;fill-rule:nonzero;"/>
</svg>
